X:110
T: Nrrchen, sei nicht sprde! (1-36), S. 94
N: K1084
O: Luxemburg
S: KINTZELE, Guillaume: An der Ucht, Bd. 1, Luxemburg 1926]
N: in der Quelle mit einer 2. Stimme versehen
R: Ermahnung an die Vergnglichkeit der Jugend und Schnheit]
M: 6/8
L: 1/8
K: G
 | G2GGBe | d2cA3
BdBAGA | G3z3
G2GGBe | d2cA3
BdBAGA | G3z3
e2ccde | d3B3
cBABAG | d4z2
G2GGBe | d2cA3
BdBAGA | G3z3
e2ccde | d3B3
cBABAG | d4z2
G2GGBe | d2cA3
BdBAGA | G3z3

